X:33
T:33.  Mr. Ed Bolick (dada tuning)
C:c 1999 Harry Bolick  
R: Slow Waltz
O:United States
A:Brooklyn, New York
M:3/4
L:1/8
Q:350
K:F %Transposed from D
|: "Dm" D3 F GA |  dc A2 GF  | "Gm" G3 A cd  | "C-no 3rd" ed cA GF |
"Dm" D3 F GA |  dc A2 GF  |  "Gm" G3 A "C" cA |"Dm"  d4 d z :|
|: "Dm" dc A2 d2 |  ag f2 d2 | "Gm" gf d2 c2  |  "Dm" dc   AG  FD  | 
"Dm" dc A2 d2 |  ag f2 d2 |  "Gm" G3 A "C" cA  |"Dm" d6 :|
